svgs/amaze.svg

<svg width="192" height="192" viewBox="0 0 192 192" fill="none" xmlns="http://www.w3.org/2000/svg">
<path d="M79.9975 37.9994L84.2419 33.7587C83.6846 33.2013 83.0229 32.7591 82.2946 32.4576C81.5664 32.156 80.7858 32.0009 79.9975 32.0013V37.9994ZM96 53.9981L91.7556 58.2425C92.8819 59.3688 94.4089 60 96 60V53.9981ZM153.997 147.995H37.9994V159.999H153.997V147.995ZM27.9988 138.002V53.9981H15.9988V137.998L27.9988 138.002ZM37.9994 44.005H79.9975V32.0013H37.9994V44.005ZM75.7569 42.2476L91.7556 58.2463L100.241 49.7613L84.2419 33.7587L75.7569 42.2476ZM163.994 69.9969V137.998H175.994V69.9969H163.994ZM96 60H153.997V48H96V60ZM37.9994 147.995C36.6861 147.995 35.3857 147.74 34.1723 147.237C32.959 146.735 31.8565 145.998 30.9279 145.07C29.9993 144.141 29.2626 143.039 28.76 141.825C28.2575 140.612 27.9988 139.315 27.9988 138.002L15.9988 137.998C15.9988 140.887 16.5679 143.748 17.6736 146.417C18.7792 149.086 20.3998 151.511 22.4428 153.554C24.4858 155.596 26.9112 157.216 29.5804 158.322C32.2496 159.427 35.1104 159.999 37.9994 159.999V147.995ZM153.997 159.999C156.886 159.999 159.747 159.431 162.417 158.325C165.086 157.22 167.512 155.599 169.555 153.556C171.598 151.513 173.218 149.087 174.324 146.418C175.429 143.749 175.994 140.887 175.994 137.998H163.994C163.994 139.311 163.739 140.612 163.236 141.825C162.734 143.039 161.997 144.141 161.068 145.07C160.14 145.998 159.037 146.735 157.824 147.237C156.611 147.74 155.31 147.995 153.997 147.995V159.999ZM175.994 69.9969C175.994 67.1082 175.429 64.2478 174.323 61.579C173.218 58.9102 171.597 56.4853 169.555 54.4427C167.512 52.4001 165.087 50.7799 162.419 49.6744C159.75 48.569 156.886 48 153.997 48V60C156.648 60.001 159.194 61.0546 161.068 62.9291C162.943 64.8037 163.993 67.3458 163.994 69.9969H175.994ZM27.9988 53.9981C27.9988 51.3458 29.0524 48.8021 30.9279 46.9266C32.8034 45.0511 35.3471 43.9975 37.9994 43.9975V31.9975C35.1104 31.9975 32.2497 32.5666 29.5807 33.6723C26.9117 34.7779 24.4866 36.3986 22.444 38.4415C20.4013 40.4845 18.7811 42.9099 17.6759 45.5791C16.5707 48.2483 16.0021 51.1091 16.0026 53.9981H27.9988Z" fill="black"/>
<path d="M100.526 96.3083L94.0931 94.2514L91.6907 87.4443C91.6462 87.3159 91.5549 87.2033 91.4305 87.1233C91.3061 87.0432 91.1551 87 91 87C90.8449 87 90.6939 87.0432 90.5695 87.1233C90.4451 87.2033 90.3538 87.3159 90.3093 87.4443L87.9069 94.2514L81.474 96.3083C81.3351 96.3521 81.2151 96.4318 81.1303 96.5365C81.0455 96.6413 81 96.766 81 96.8939C81 97.0217 81.0455 97.1465 81.1303 97.2512C81.2151 97.356 81.3351 97.4357 81.474 97.4795L87.9031 99.5396L90.3055 106.55C90.3489 106.68 90.44 106.794 90.5649 106.875C90.6898 106.956 90.8418 107 90.9981 107C91.1544 107 91.3064 106.956 91.4313 106.875C91.5562 106.794 91.6473 106.68 91.6907 106.55L94.0969 99.5363L100.526 97.4795C100.665 97.4357 100.785 97.356 100.87 97.2512C100.955 97.1465 101 97.0217 101 96.8939C101 96.766 100.955 96.6413 100.87 96.5365C100.785 96.4318 100.665 96.3521 100.526 96.3083Z" fill="black" stroke="black" stroke-width="4" stroke-linecap="round" stroke-linejoin="round"/>
<path d="M91 119C103.15 119 113 109.15 113 97C113 84.8497 103.15 75 91 75C78.8497 75 69 84.8497 69 97C69 109.15 78.8497 119 91 119Z" stroke="black" stroke-width="12" stroke-linecap="round" stroke-linejoin="round"/>
<path d="M106 116.32L122.73 133.051" stroke="black" stroke-width="12" stroke-linecap="round" stroke-linejoin="round"/>
</svg>

<svg width="192" height="192" viewBox="0 0 192 192" fill="none" xmlns="http://www.w3.org/2000/svg"><path d="m79.998 38 4.244-4.241A5.998 5.998 0 0 0 79.997 32V38ZM96 53.997l-4.244 4.245A6.002 6.002 0 0 0 96 60v-6.002Zm57.997 93.997H37.999v12.004h115.998v-12.004Zm-125.998-9.993V53.998h-12v84l12 .004Zm10-93.997h41.998V32.001H38v12.004Zm37.758-1.757 15.999 15.998 8.485-8.485-16-16.002-8.484 8.489Zm88.237 27.749v68.001h12V69.997h-12ZM96 60h57.997V48H96v12Zm-58 87.995a9.99 9.99 0 0 1-10.001-9.993l-12-.004a21.998 21.998 0 0 0 13.581 20.324 22.014 22.014 0 0 0 8.42 1.677v-12.004Zm115.997 12.004a22 22 0 0 0 20.327-13.581 22.011 22.011 0 0 0 1.67-8.42h-12a9.989 9.989 0 0 1-9.997 9.997v12.004Zm21.997-90.002a21.983 21.983 0 0 0-13.575-20.323A22.018 22.018 0 0 0 153.997 48v12a9.996 9.996 0 0 1 9.997 9.997h12ZM27.999 53.998a10 10 0 0 1 10-10v-12a21.996 21.996 0 0 0-21.996 22h11.996Z" fill="#000"/><path d="m100.526 96.308-6.433-2.057-2.402-6.807a.632.632 0 0 0-.26-.32A.798.798 0 0 0 91 87a.798.798 0 0 0-.43.123.632.632 0 0 0-.26.321l-2.403 6.807-6.433 2.057a.718.718 0 0 0-.344.228.567.567 0 0 0-.13.358c0 .128.046.252.13.357a.718.718 0 0 0 .344.228l6.43 2.06 2.401 7.011c.044.13.135.244.26.325a.8.8 0 0 0 .433.125.8.8 0 0 0 .433-.125.629.629 0 0 0 .26-.325l2.406-7.014 6.429-2.056a.719.719 0 0 0 .344-.229.565.565 0 0 0 .13-.357.566.566 0 0 0-.13-.358.72.72 0 0 0-.344-.228Z" fill="#000" stroke="#000" stroke-width="4" stroke-linecap="round" stroke-linejoin="round"/><path d="M91 119c12.15 0 22-9.85 22-22s-9.85-22-22-22-22 9.85-22 22 9.85 22 22 22ZM106 116.32l16.73 16.731" stroke="#000" stroke-width="12" stroke-linecap="round" stroke-linejoin="round"/></svg>
